X:1
T: Jim's Reel
C:
R:Reel
Q: 232
K:G
M:4/4
L:1/8
|:dB|GA Bc de fg|a2 d'2 d'3c'|b2 g2 ((3gag) fg|a2 d2 d3d|
cd ef ga bg|e2 a2 a3g|fg ab c'b ag|fe dc B2 d2|
e2 g2 e2 g2|fg af d2 gf|e2 g2 e2 g2|d'6 d'2|
e'2 d'c' d'2 c'b|c'b a2 b2 g2|eg c'e' d'2 f2|g6:|
